src/assets/flags/HRK.svg

<svg width="512" height="512" viewBox="0 0 512 512" fill="none" xmlns="http://www.w3.org/2000/svg">
<mask id="mask0_518_340" style="mask-type:alpha" maskUnits="userSpaceOnUse" x="0" y="0" width="512" height="512">
<path d="M256 512C397.385 512 512 397.385 512 256C512 114.615 397.385 0 256 0C114.615 0 0 114.615 0 256C0 397.385 114.615 512 256 512Z" fill="white"/>
</mask>
<g mask="url(#mask0_518_340)">
<path d="M0 0H512V512H0V0Z" fill="#EEEEEE"/>
<path d="M0 0H512V167H0V0Z" fill="#D80027"/>
<path d="M0 345H512V512H0V345Z" fill="#0052B4"/>
<path d="M322.8 177.9H278.3L285.7 122.2L315.4 100L345 122.2V166.9L322.8 177.9ZM189.2 177.9H233.7L226.3 122.2L196.6 100L167 122.2V166.9L189.2 177.9Z" fill="#338AF3"/>
<path d="M285.7 177.9H226.3V122.2L256 100L285.7 122.2V177.9Z" fill="#0052B4"/>
<path d="M167 166.9V289.2C167.008 303.051 170.248 316.709 176.463 329.087C182.678 341.465 191.696 352.221 202.8 360.5L218.3 356.6L238 376.4C243.923 377.609 249.954 378.213 256 378.2C262.012 378.207 268.009 377.603 273.9 376.4L296.3 357.7L309.3 360.5C320.385 352.211 329.384 341.449 335.582 329.072C341.779 316.695 345.004 303.043 345 289.2V166.9H167Z" fill="#EEEEEE"/>
<path d="M167 166.9H202.6V202.4H167V166.9ZM238.2 166.9H273.8V202.4H238.2V166.9ZM309.4 166.9H345V202.4H309.4V166.9ZM202.6 202.4H238.2V238H202.6V202.4ZM273.8 202.4H309.4V238H273.8V202.4ZM167 238H202.6V273.6H167V238ZM202.6 273.6H238.2V309.2H202.6V273.6ZM238.2 238H273.8V273.6H238.2V238ZM309.4 238H345V273.6H309.4V238ZM273.8 273.6H309.4V309.2H273.8V273.6ZM238.2 309.2H273.8V344.9H238.2V309.2ZM202.6 309.2H169.3C172.3 322.5 178.3 334.6 186.6 344.8H202.6V309.2ZM309.4 344.9H325.4C333.772 334.486 339.685 322.317 342.7 309.3H309.4V344.9ZM202.6 344.9V360.5C213.132 368.411 225.293 373.876 238.2 376.5V344.9H202.6ZM273.8 344.9V376.5C286.707 373.876 298.868 368.411 309.4 360.5V344.9H273.8Z" fill="#D80027"/>
</g>
</svg>

<svg width="512" height="512" viewBox="0 0 512 512" fill="none" xmlns="http://www.w3.org/2000/svg"><mask id="a" style="mask-type:alpha" maskUnits="userSpaceOnUse" x="0" y="0" width="512" height="512" viewBox="0 0 512 512"><path d="M256 512c141.385 0 256-114.615 256-256S397.385 0 256 0 0 114.615 0 256s114.615 256 256 256z" fill="#fff"/></mask><g mask="url(#a)"><path d="M0 0h512v512H0V0z" fill="#EEE"/><path d="M0 0h512v167H0V0z" fill="#D80027"/><path d="M0 345h512v167H0V345z" fill="#0052B4"/><path d="M322.8 177.9h-44.5l7.4-55.7 29.7-22.2 29.6 22.2v44.7l-22.2 11zm-133.6 0h44.5l-7.4-55.7-29.7-22.2-29.6 22.2v44.7l22.2 11z" fill="#338AF3"/><path d="M285.7 177.9h-59.4v-55.7L256 100l29.7 22.2v55.7z" fill="#0052B4"/><path d="M167 166.9v122.3a89.006 89.006 0 0 0 35.8 71.3l15.5-3.9 19.7 19.8a89.045 89.045 0 0 0 18 1.8 88.945 88.945 0 0 0 17.9-1.8l22.4-18.7 13 2.8a89.007 89.007 0 0 0 35.7-71.3V166.9H167z" fill="#EEE"/><path d="M167 166.9h35.6v35.5H167v-35.5zm71.2 0h35.6v35.5h-35.6v-35.5zm71.2 0H345v35.5h-35.6v-35.5zm-106.8 35.5h35.6V238h-35.6v-35.6zm71.2 0h35.6V238h-35.6v-35.6zM167 238h35.6v35.6H167V238zm35.6 35.6h35.6v35.6h-35.6v-35.6zm35.6-35.6h35.6v35.6h-35.6V238zm71.2 0H345v35.6h-35.6V238zm-35.6 35.6h35.6v35.6h-35.6v-35.6zm-35.6 35.6h35.6v35.7h-35.6v-35.7zm-35.6 0h-33.3c3 13.3 9 25.4 17.3 35.6h16v-35.6zm106.8 35.7h16a88.797 88.797 0 0 0 17.3-35.6h-33.3v35.6zm-106.8 0v15.6a88.697 88.697 0 0 0 35.6 16v-31.6h-35.6zm71.2 0v31.6a88.697 88.697 0 0 0 35.6-16v-15.6h-35.6z" fill="#D80027"/></g></svg>
